source/icons/youtube.svg

<svg width="29" height="22" viewBox="0 0 29 22" fill="none" xmlns="http://www.w3.org/2000/svg">
<path d="M18.3509 10.7927L13.1145 7.30184C13.0159 7.23691 12.9016 7.19985 12.7837 7.19459C12.6657 7.18934 12.5486 7.21608 12.4446 7.27198C12.3406 7.32789 12.2537 7.41087 12.193 7.51215C12.1324 7.61343 12.1002 7.72924 12.1 7.84729V14.8291C12.1001 14.9481 12.1327 15.0648 12.1942 15.1667C12.2557 15.2686 12.3438 15.3518 12.4491 15.4073C12.5524 15.4631 12.6691 15.4895 12.7864 15.4837C12.9037 15.478 13.0172 15.4402 13.1145 15.3746L18.3509 11.8837C18.4409 11.8239 18.5148 11.7429 18.5658 11.6477C18.6169 11.5526 18.6436 11.4462 18.6436 11.3382C18.6436 11.2302 18.6169 11.1239 18.5658 11.0287C18.5148 10.9335 18.4409 10.8525 18.3509 10.7927ZM13.4091 13.6073V9.06911L16.8127 11.3382L13.4091 13.6073ZM25.8891 5.04366C25.7942 4.67547 25.6131 4.33511 25.3609 4.05061C25.1086 3.76611 24.7924 3.54561 24.4382 3.40729C20.7182 1.9782 14.7509 2.00002 14.5 2.00002C14.2491 2.00002 8.28182 1.9782 4.56182 3.40729C4.20764 3.54561 3.8914 3.76611 3.63914 4.05061C3.38689 4.33511 3.20584 4.67547 3.11091 5.04366C2.82727 6.11275 2.5 8.07638 2.5 11.3382C2.5 14.6 2.82727 16.5637 3.11091 17.6327C3.20584 18.0009 3.38689 18.3413 3.63914 18.6258C3.8914 18.9103 4.20764 19.1308 4.56182 19.2691C8.28182 20.6982 14.2491 20.6764 14.5 20.6764H14.5764C15.3291 20.6764 20.8927 20.6327 24.4382 19.2691C24.7924 19.1308 25.1086 18.9103 25.3609 18.6258C25.6131 18.3413 25.7942 18.0009 25.8891 17.6327C26.1727 16.5637 26.5 14.6 26.5 11.3382C26.5 8.07638 26.1727 6.11275 25.8891 5.04366ZM24.6236 17.3055C24.5807 17.472 24.499 17.6259 24.3853 17.7548C24.2715 17.8838 24.1289 17.984 23.9691 18.0473C20.4782 19.3891 14.5655 19.3673 14.5 19.3673C14.4345 19.3673 8.52182 19.3891 5.03091 18.0473C4.87107 17.984 4.72846 17.8838 4.61471 17.7548C4.50096 17.6259 4.41929 17.472 4.37636 17.3055C4.11455 16.3018 3.80909 14.4582 3.80909 11.3382C3.80909 8.2182 4.11455 6.37457 4.37636 5.37093C4.41929 5.20445 4.50096 5.05047 4.61471 4.92156C4.72846 4.79264 4.87107 4.69243 5.03091 4.62911C8.52182 3.28729 14.4345 3.30911 14.5 3.30911C14.5655 3.30911 20.4782 3.28729 23.9691 4.62911C24.1289 4.69243 24.2715 4.79264 24.3853 4.92156C24.499 5.05047 24.5807 5.20445 24.6236 5.37093C24.8855 6.37457 25.1909 8.2182 25.1909 11.3382C25.1909 14.4582 24.8855 16.3018 24.6236 17.3055Z" fill="#666666"/>
</svg>

<svg xmlns="http://www.w3.org/2000/svg" viewBox="0 0 29 22"><path fill="#666" d="m18.35 10.8-5.24-3.5a.65.65 0 0 0-1.01.55v6.98a.65.65 0 0 0 1.01.54l5.24-3.49a.65.65 0 0 0 0-1.09Zm-4.94 2.8V9.08l3.4 2.27-3.4 2.27Zm12.48-8.56a2.4 2.4 0 0 0-1.45-1.63C20.72 1.98 14.75 2 14.5 2s-6.22-.02-9.94 1.4a2.4 2.4 0 0 0-1.45 1.64 25.32 25.32 0 0 0-.61 6.3c0 3.26.33 5.22.61 6.3a2.4 2.4 0 0 0 1.45 1.63c3.72 1.43 9.69 1.4 9.94 1.4h.08c.75 0 6.31-.04 9.86-1.4a2.4 2.4 0 0 0 1.45-1.64c.28-1.07.61-3.03.61-6.3 0-3.25-.33-5.22-.61-6.29Zm-1.27 12.27a1.1 1.1 0 0 1-.65.74c-3.5 1.34-9.4 1.32-9.47 1.32-.07 0-5.98.02-9.47-1.32a1.09 1.09 0 0 1-.65-.74c-.27-1-.57-2.85-.57-5.97 0-3.12.3-4.97.57-5.97a1.1 1.1 0 0 1 .65-.74c3.5-1.34 9.4-1.32 9.47-1.32.07 0 5.98-.02 9.47 1.32a1.1 1.1 0 0 1 .65.74c.27 1 .57 2.85.57 5.97 0 3.12-.3 4.96-.57 5.97Z"/></svg>
